public/resource/img/game/feedback/downvote-filled.svg

<svg xmlns="http://www.w3.org/2000/svg" xmlns:xlink="http://www.w3.org/1999/xlink" viewBox="0 0 32 32" stroke="none" stroke-width="0"><path d="M16,32 C7.16363636,32 0,24.8363636 0,16 C0,7.16363636 7.16363636,0 16,0 C24.8363636,0 32,7.16363636 32,16 C32,24.8363636 24.8363636,32 16,32 Z M10.1818182,14.9090909 C10.1818182,15.6 10.7272727,16.1818182 11.4181818,16.1818182 C10.7272727,16.1818182 10.1818182,16.7272727 10.1818182,17.4181818 C10.1818182,18.1090909 10.7272727,18.6545455 11.4181818,18.6545455 L16.3272727,18.6545455 L15.3818182,21.1636364 C14.8727273,22.5454545 15.5272727,24.0363636 16.8727273,24.5454545 C18.2181818,25.0181818 19.7090909,24.3272727 20.2181818,22.9454545 L21.8181818,18.6545455 L21.8181818,8.69090909 L16.5818182,8.69090909 L11.4181818,8.69090909 C10.7272727,8.69090909 10.1818182,9.27272727 10.1818182,9.96363636 C10.1818182,10.6545455 10.7272727,11.2 11.4181818,11.2 C10.7272727,11.2 10.1818182,11.7454545 10.1818182,12.4363636 C10.1818182,13.1272727 10.7272727,13.6727273 11.4181818,13.6727273 C10.7272727,13.6727273 10.1818182,14.2181818 10.1818182,14.9090909 Z" style="fill: rgb(255, 51, 85);"></path></svg>

<svg xmlns="http://www.w3.org/2000/svg" stroke-width="0" viewBox="0 0 32 32"><path fill="#f35" d="M16 32C7.164 32 0 24.836 0 16S7.164 0 16 0s16 7.164 16 16-7.164 16-16 16zm-5.818-17.09c0 .69.545 1.272 1.236 1.272-.69 0-1.236.545-1.236 1.236s.545 1.237 1.236 1.237h4.91l-.946 2.509c-.51 1.381.145 2.872 1.49 3.381a2.635 2.635 0 0 0 3.346-1.6l1.6-4.29V8.69H11.418c-.69 0-1.236.582-1.236 1.273 0 .69.545 1.236 1.236 1.236-.69 0-1.236.545-1.236 1.236s.545 1.237 1.236 1.237c-.69 0-1.236.545-1.236 1.236z"/></svg>
